X:700
T:Reel 700
M:4/4
K:Gmaj
L:1/8
c|BdGd BdGd|BdGB B2Ag|ABcd eAcA|edef gedc|BdGd BGGd|Bdde d2cB|cdef gedc|BdAF G2|dg|bgaf gfdf|gfge fddg|agab c'bag|fdec gedc|BGAF BGdG|BGdf g2dg|abaf gefd|egfa gedc|
